icon-svg/ikea-remtang2.svg

<svg xmlns="http://www.w3.org/2000/svg" viewBox="0 0 24 24"><path fill="#44739e" d="M14.176 6.852c-.66.04-1.351.07-2.061.07v6.294c.71 0 1.401-.03 2.061-.07Zm-2.371.08c-.71 0-1.401-.03-2.061-.07v6.284c.66.05 1.351.07 2.061.08Zm-2.381-.1c-.731-.06-1.421-.14-2.061-.24v6.273c.64.11 1.33.191 2.061.251Zm-2.371-.3a14 14 0 0 1-2.062-.51v6.253c.561.21 1.261.39 2.062.54V6.542Zm-2.372-.63c-.51-.2-.9-.42-1.16-.66l.03 6.063c.15.3.55.58 1.13.83V5.892Zm14.548.02v6.233c.62-.26 1.04-.55 1.2-.86V5.262c-.26.24-.67.46-1.2.66m-2.682.67c-.64.1-1.33.18-2.061.24v6.284c.731-.06 1.421-.141 2.061-.251V6.582Zm2.371-.55c-.58.19-1.28.36-2.061.5v6.273c.801-.15 1.491-.33 2.061-.53Zm-6.923 7.404c-4.282 0-7.924-.801-8.464-1.801v.37c0 1.281 3.802 2.281 8.464 2.281s8.364-.99 8.444-2.271v-.38c-.55 1.01-4.162 1.801-8.444 1.801m.55 7.013v-5.132a.92.92 0 0 0 .801-.911q-1.474.18-2.782 0v.04c0 .48.39.871.871.871v5.122H4.831V22h14.328v-1.551h-6.614Zm7.924-16.348C20.439 2.99 16.617 2 12.005 2c-3.962 0-8.424.83-8.464 2.081l-.02.69c0 .07.02.11.05.16.78.961 4.232 1.671 8.424 1.671s7.424-.67 8.364-1.58c.06-.061.08-.141.1-.221l.02-.68h-.01Z"/></svg>

<?xml version="1.0" encoding="UTF-8"?>
<svg
   width="24"
   height="24"
   viewBox="0 0 24 24"
   version="1.1"
   xmlns="http://www.w3.org/2000/svg"
   xmlns:svg="http://www.w3.org/2000/svg">
  <path style="fill:#44739e" d="M14.18,6.85c-.66.04-1.35.07-2.06.07v6.29c.71,0,1.4-.03,2.06-.07v-6.29ZM11.81,6.93c-.71,0-1.4-.03-2.06-.07v6.28c.66.05,1.35.07,2.06.08,0,0,0-6.29,0-6.29ZM9.43,6.83c-.73-.06-1.42-.14-2.06-.24v6.27c.64.11,1.33.19,2.06.25v-6.28ZM7.06,6.53c-.79-.14-1.48-.31-2.06-.51v6.25c.56.21,1.26.39,2.06.54v-6.27h0ZM4.69,5.9c-.51-.2-.9-.42-1.16-.66l.03,6.06c.15.3.55.58,1.13.83v-6.24h0ZM19.23,5.92v6.23c.62-.26,1.04-.55,1.2-.86v-6.03c-.26.24-.67.46-1.2.66ZM16.55,6.59c-.64.1-1.33.18-2.06.24v6.28c.73-.06,1.42-.14,2.06-.25v-6.28h0ZM18.92,6.04c-.58.19-1.28.36-2.06.5v6.27c.8-.15,1.49-.33,2.06-.53v-6.24ZM12,13.44c-4.28,0-7.92-.8-8.46-1.8v.37c0,1.28,3.8,2.28,8.46,2.28s8.36-.99,8.44-2.27v-.38c-.55,1.01-4.16,1.8-8.44,1.8ZM12.55,20.45v-5.13h0c.45-.06.8-.44.8-.91h0c-.98.12-1.91.12-2.78,0v.04c0,.48.39.87.87.87v5.12h-6.6v1.55h14.32v-1.55h-6.61ZM20.47,4.11c-.03-1.12-3.85-2.11-8.46-2.11-3.96,0-8.42.83-8.46,2.08l-.02.69c0,.07.02.11.05.16.78.96,4.23,1.67,8.42,1.67s7.42-.67,8.36-1.58c.06-.06.08-.14.1-.22l.02-.68h-.01Z"/>
</svg>
